X: 351
T: Wedding Sirba
R: sirba
O:
Q: 1/4=160
B: German Goldenshteyn "Shpilt klezmorimlach klingen zoln di gesalach" New York 2003 v.3 #51
Z: 2013 John Chambers <jc:trillian.mit.edu>
M: 2/4
L: 1/8
K: Em
|:\
Be2g | (~fe) (~e^d) | (~^dc) (~cB) | (~BA) (~AG) |\
FA2c | (~BA) (~AG) | GF GA | B2z2 |
Be2g | (~fe) (~e^d) | (~^dc) (~cB) | (~BA) (~AG) |\
FA2c | (~BA) (~AG) | GF B^D | E2z2 :|
|:\
e3g | b3b | (~ba) (~ag) | (~^gf) (~fe) |\
^d3f | a4 | z~c'ba | ba gf |
e3g | "^>"bz zb | (b/c'/)b ^ab | e'z z2 |\
(~e'c') (~c'b) | (~ba) (~ag) | gf b^d e2z2 :|
|:\
e/e/e g/g/g | e/e/e g/g/g | e/e/e g/g/g | f2z2 |\
^d/d/d f/f/f | ^d/d/d f/f/f | ^d/d/d f/f/f | e2z2 |
e/e/e g/g/g | e/e/e g/g/g | e/e/e ab | c'2z2 |\
(~e'c') (~c'b) | (~ba) (~ag) | gf b^d | e2z2 :|
